sharp/svg/settings_voice.svg

<svg xmlns="http://www.w3.org/2000/svg" width="24" height="24"><path fill="none" d="M0 0h24v24H0V0z"/><path d="M7 24h2v-2H7v2zm5-11c1.66 0 2.99-1.34 2.99-3L15 4c0-1.66-1.34-3-3-3S9 2.34 9 4v6c0 1.66 1.34 3 3 3zm-1 11h2v-2h-2v2zm4 0h2v-2h-2v2zm4-14h-1.7c0 3-2.54 5.1-5.3 5.1S6.7 13 6.7 10H5c0 3.41 2.72 6.23 6 6.72V20h2v-3.28c3.28-.49 6-3.31 6-6.72z" fill="currentColor"/></svg>

<?xml version="1.0" encoding="utf-8"?>
<!-- Generator: Adobe Illustrator 19.1.0, SVG Export Plug-In . SVG Version: 6.00 Build 0)  -->
<svg version="1.1" xmlns="http://www.w3.org/2000/svg" xmlns:xlink="http://www.w3.org/1999/xlink" x="0px" y="0px" width="24px"
	 height="24px" viewBox="0 0 24 24" enable-background="new 0 0 24 24" xml:space="preserve">
<g id="Bounding_Boxes">
	<g id="ui_x5F_spec_x5F_header_copy_3" display="none">
	</g>
	<path fill="none" d="M0,0h24v24H0V0z"/>
</g>
<g id="Sharp" fill="currentColor">
	<g id="ui_x5F_spec_x5F_header_copy_4" display="none">
	</g>
	<path d="M7,24h2v-2H7V24z M12,13c1.66,0,2.99-1.34,2.99-3L15,4c0-1.66-1.34-3-3-3S9,2.34,9,4v6C9,11.66,10.34,13,12,13z M11,24h2
		v-2h-2V24z M15,24h2v-2h-2V24z M19,10h-1.7c0,3-2.54,5.1-5.3,5.1S6.7,13,6.7,10H5c0,3.41,2.72,6.23,6,6.72V20h2v-3.28
		C16.28,16.23,19,13.41,19,10z"/>
</g>
</svg>
